www/assets/icons/request_quote.svg

<svg xmlns="http://www.w3.org/2000/svg" width="24" height="24" viewBox="0 0 24 24" fill='currentColor'><path d="M14 2H6c-1.1 0-1.99.9-1.99 2L4 20c0 1.1.89 2 1.99 2H18c1.1 0 2-.9 2-2V8zm1 10h-4v1h3c.55 0 1 .45 1 1v3c0 .55-.45 1-1 1h-1v1h-2v-1H9v-2h4v-1h-3c-.55 0-1-.45-1-1v-3c0-.55.45-1 1-1h1V9h2v1h2zm-2-4V3.5L17.5 8z"/></svg>

<svg width="24" height="24" viewBox="0 0 24 24" xmlns="http://www.w3.org/2000/svg" fill='currentColor'><path d="M14 2H6C4.9 2 4.01 2.9 4.01 4L4 20C4 21.1 4.89 22 5.99 22H18C19.1 22 20 21.1 20 20V8L14 2ZM15 12H11V13H14C14.55 13 15 13.45 15 14V17C15 17.55 14.55 18 14 18H13V19H11V18H9V16H13V15H10C9.45 15 9 14.55 9 14V11C9 10.45 9.45 10 10 10H11V9H13V10H15V12ZM13 8V3.5L17.5 8H13Z"/></svg>
